X:1
T:Andantino
T:Andantino
%%score { 1 | 2 }
L:1/8
M:3/4
K:C
V:1 treble nm="Piano" snm="Pno."
V:2 bass 
V:1
 (d2 B2) z2 | (d2 B2) z2 | (c2 A2 d2) | B2 G2 z2 | d2 B2 z2 | d2 B2 z2 | c2 A2 d2 | G2 z4 :| %8
 (c2 A2 d2) | B2 G2 B2 | c2 A2 d2 | B2 G2 z2 | B2 B2 B2 | d2 c2 A2 | G2 B2 A2 | G2 z2 z2 | %16
 A2 A2 A2 | G2 z2 z2 | A2 c2 B2 | G2 z2 B2 | G2 z2 B2 | G6 || z6 | z6 | z6 | z6 | z6 | z6 | z6 | %29
 z6 | z6 | z6 | z6 | z6 | z6 | z6 | z6 | z6 | z6 | z6 | z6 | z6 | z6 | z6 |] %44
V:2
 (B,2 G,2) z2 | (B,2 G,2) z2 | (A,2 C2 A,2 | G,2 B,2) z2 | B,2 G,2 z2 | B,2 G,2 z2 | A,2 C2 A,2 | %7
 B,2 z4 :| (A,2 C2 A,2 | G,2 B,2 G,2 | A,2 C2 A,2 | G,2 B,2) z2 | G,2 G,2 G,2 | B,2 A,2 C2 | %14
 B,2 D2 C2 | B,2 z2 z2 | C4 D2 | B,2 z2 z2 | C4 D2 | B,2 z2 D2 | B,2 z2 D2 | B,6 || z6 | z6 | z6 | %25
 z6 | z6 | z6 | z6 | z6 | z6 | z6 | z6 | z6 | z6 | z6 | z6 | z6 | z6 | z6 | z6 | z6 | z6 | z6 |] %44

